X: 1
T: Trollpolska fr\aan Boda
O: efter Rombo Spelm\"an
R: Boda-polska
B:
D:
Z: 1997 by John Chambers <jc@trillian.mit.edu>
N:
M: 3/4
L: 1/8
K: Dm
A,2 \
|: "Dm"D2 DE F>G | "A7"A>A ^c2 d>e | "Dm"f>g f>e d>d | "F"c>d c>A F>A |
| "Gm"B>c B>A G>B | "Dm"A>B A>G F>F | "A7" E>F E>D ^C>C | "Dm"D2 D4 :|
|: "Dm"a>g f>e f>a | "C"g>a g>e c>e | "Bb"f>e d^c d>f | "A7"e>f e^c A2 |
| "Gm"d>c B>A B>d | "F"c>d c>A F>F | "A7" E>F E>D ^C>C | "Dm"D2 D4 :|
